gama.ui.shared/icons_svg/light/views/tabs/view.navigator.svg

<svg height="24.75" viewBox="-638.649 -2973.769 24.75 24.75" width="24.75" xmlns="http://www.w3.org/2000/svg"><path d="m-631.5241-2966.2935c-.5799 0-1.05.4701-1.05 1.05v7.7c0 .5799.4701 1.05 1.05 1.05h10.5c.5799 0 1.05-.4701 1.05-1.05v-5.6c0-.5799-.4701-1.05-1.05-1.05h-3.85c-.7732 0-1.4-.6268-1.4-1.4 0-.3865-.3134-.7-.7-.7zm0-.7h4.55c.7732 0 1.4.6268 1.4 1.4 0 .3865.3134.7.7.7h3.85c.9665 0 1.75.7835 1.75 1.75v5.6c0 .9665-.7835 1.75-1.75 1.75h-10.5c-.9665 0-1.75-.7835-1.75-1.75v-7.7c0-.9665.7835-1.75 1.75-1.75z" fill="#5c76a1"/></svg>

<?xml version="1.0" encoding="UTF-8" standalone="no"?>
<!DOCTYPE svg PUBLIC "-//W3C//DTD SVG 1.1//EN" "http://www.w3.org/Graphics/SVG/1.1/DTD/svg11.dtd">
<svg xmlns="http://www.w3.org/2000/svg" xmlns:dc="http://purl.org/dc/elements/1.1/" version="1.1" xmlns:xl="http://www.w3.org/1999/xlink" viewBox="-638.6491 -2973.7685 24.75 24.75" width="24.75" height="24.75">
  <defs/>
  <g id="SOURCES" fill="none" stroke="none" stroke-dasharray="none" fill-opacity="1" stroke-opacity="1">
    <title>SOURCES</title>
    <g id="SOURCES_Light">
      <title>Light</title>
      <g id="Group_12728">
        <g id="Graphic_9823">
          <path d="M -631.5241 -2966.2935 C -632.104 -2966.2935 -632.5741 -2965.8234 -632.5741 -2965.2435 L -632.5741 -2957.5435 C -632.5741 -2956.9636 -632.104 -2956.4935 -631.5241 -2956.4935 L -621.0241 -2956.4935 C -620.4442 -2956.4935 -619.9741 -2956.9636 -619.9741 -2957.5435 L -619.9741 -2963.1435 C -619.9741 -2963.7234 -620.4442 -2964.1935 -621.0241 -2964.1935 L -624.8741 -2964.1935 C -625.6473 -2964.1935 -626.2741 -2964.8203 -626.2741 -2965.5935 C -626.2741 -2965.98 -626.5875 -2966.2935 -626.9741 -2966.2935 Z M -631.5241 -2966.9935 L -626.9741 -2966.9935 C -626.2009 -2966.9935 -625.5741 -2966.3667 -625.5741 -2965.5935 C -625.5741 -2965.207 -625.2607 -2964.8935 -624.8741 -2964.8935 L -621.0241 -2964.8935 C -620.0576 -2964.8935 -619.2741 -2964.11 -619.2741 -2963.1435 L -619.2741 -2957.5435 C -619.2741 -2956.577 -620.0576 -2955.7935 -621.0241 -2955.7935 L -631.5241 -2955.7935 C -632.4906 -2955.7935 -633.2741 -2956.577 -633.2741 -2957.5435 L -633.2741 -2965.2435 C -633.2741 -2966.21 -632.4906 -2966.9935 -631.5241 -2966.9935 Z" fill="#5c76a1"/>
        </g>
        <g id="Graphic_12712"/>
      </g>
    </g>
  </g>
</svg>
